icons/linear-ele-food-noodle.svg

<svg xmlns="http://www.w3.org/2000/svg" width="32px" height="32px" viewBox="0 0 32 32" version="1.1">
    <title>linear-ele-food-noodle</title>
    <g id="linear-ele-food-noodle" stroke-width="1" fill-rule="evenodd">
        <path d="M13,3 C15.3044208,3 17.4065584,3.86607772 18.9986685,5.29048898 C19.6422845,5.09880052 20.3147418,5 21,5 C24.8656591,5 27.9994582,8.13346493 28,11.9989974 C28.5522847,12 29,12.4477153 29,13 C29,17.4947143 26.6990008,21.5896101 23.0014029,23.955446 L23,26 C23,27.1045695 22.1045695,28 21,28 L11,28 C9.8954305,28 9,27.1045695 9,26 L9.000095,23.9564055 C5.30167371,21.5907588 3,17.4953684 3,13 C3,12.4477153 3.44771525,12 4,12 C4,7.02943725 8.02943725,3 13,3 Z M21,24 L11,24 L11,26 L21,26 L21,24 Z M26.954,14 L5.045,14 L5.07739008,14.3083972 C5.44828846,17.426398 7.13144686,20.2123532 9.67413075,22.0007814 L22.3258023,22.0007814 C24.8686381,20.2123162 26.5518215,17.4262175 26.9226461,14.3080951 L26.954,14 Z M21,7 C20.832106,7 20.6654693,7.0082445 20.5005036,7.02456476 C21.4479513,8.44959952 21.9997998,10.1598595 21.9999999,11.999 L25.999,11.999 L25.9953805,11.7831104 C25.8818181,9.12230671 23.6887547,7 21,7 Z M13.0000001,5 C9.13434095,5 6.00054185,8.13346493 6.00000007,11.999 L8.00000007,11.999 L8.00461951,11.7831104 C8.11818189,9.12230671 10.3112453,7 13.0000001,7 C15.7610889,7 17.999457,9.23803334 18.0000001,11.999 L20.0000001,11.999 L19.995941,11.7593502 C19.8690987,8.00478338 16.7854517,5 13.0000001,5 Z M13.0000002,9 C11.3434801,9 10.000542,10.3426038 10.0000002,11.999 L16.0000002,11.999 L15.9949073,11.8237272 C15.9036609,10.24892 14.5976809,9 13.0000002,9 Z" id="&#24418;&#29366;" fill-rule="nonzero" />
    </g>
</svg>

<svg xmlns="http://www.w3.org/2000/svg" viewBox="0 0 32 32"><path fill="currentColor" d="M13 3c2.304 0 4.407.866 5.999 2.29A7 7 0 0 1 28 12c.552.001 1 .449 1 1.001a12.99 12.99 0 0 1-5.999 10.955L23 26a2 2 0 0 1-2 2H11a2 2 0 0 1-2-2v-2.044A12.99 12.99 0 0 1 3 13a1 1 0 0 1 1-1 9 9 0 0 1 9-9m8 21H11v2h10zm5.954-10H5.045l.032.308a10.99 10.99 0 0 0 4.597 7.693h12.652a10.99 10.99 0 0 0 4.597-7.693zM21 7c-.168 0-.335.008-.5.025a8.956 8.956 0 0 1 1.5 4.974h3.999l-.004-.216A5 5 0 0 0 21 7m-8-2a7 7 0 0 0-7 6.999h2l.005-.216A5 5 0 0 1 18 12h2l-.004-.24A7 7 0 0 0 13 5m0 4a3 3 0 0 0-3 2.999h6l-.005-.175A3 3 0 0 0 13 9"/></svg>
